brandFactory_export/3.Masa/Data stripes_3Masa.svg

<?xml version="1.0" encoding="UTF-8"?>
<svg width="24px" height="24px" viewBox="0 0 24 24" version="1.1" xmlns="http://www.w3.org/2000/svg" xmlns:xlink="http://www.w3.org/1999/xlink">
    <title>3.Masa/Data stripes_3Masa</title>
    <g id="Symbols" stroke="none" stroke-width="1" fill="none" fill-rule="evenodd">
        <g id="3.Masa/Data-stripes_3Masa" fill="#5CB615" fill-rule="nonzero">
            <path d="M10.5411765,3.89243697 C9.18319328,3.48571429 8.35966387,2.93109244 8.14117647,2.29579832 C8.14117647,2.28571429 8.14117647,2.28571429 8.13109244,2.27563025 C8.34957983,1.64033613 9.17310924,1.07563025 10.5243697,0.668907563 C11.9529412,0.238655462 13.8453782,0 15.8487395,0 C17.8521008,0 19.7478992,0.238655462 21.1663866,0.668907563 C22.5882353,1.09579832 23.3915966,1.6605042 23.5697479,2.32941176 C23.5697479,2.32941176 23.5596639,2.3394958 23.5596639,2.34957983 C23.3176471,2.96470588 22.5042017,3.49579832 21.1764706,3.89243697 C19.7445378,4.31932773 17.8621849,4.56134454 15.8588235,4.56134454 C13.8554622,4.55798319 11.9731092,4.31932773 10.5411765,3.89243697 L10.5411765,3.89243697 Z M13.7579832,11.6436975 C13.7647059,11.2571429 13.7714286,10.897479 13.7747899,10.5848739 L13.7781513,10.1579832 C12.3563025,10.1579832 11.4588235,9.56638655 10.6554622,9.03193277 C9.95966387,8.57142857 9.2907563,8.13781513 8.28907563,8 L8.28907563,14.087395 L13.6806723,14.087395 C13.7142857,13.2739496 13.7411765,12.4605042 13.7579832,11.6436975 L13.7579832,11.6436975 Z M13.4117647,17.102521 C13.4319328,16.9882353 13.4487395,16.8470588 13.4655462,16.7159664 C13.4890756,16.5478992 13.5092437,16.3697479 13.5294118,16.1815126 C13.5495798,15.9764706 13.5731092,15.7647059 13.589916,15.5394958 L8.28907563,15.5394958 L8.28907563,21.7411765 C8.88403361,21.4151261 9.46890756,21.0655462 10.0369748,20.692437 L10.1008403,20.6487395 C10.3159664,20.507563 10.5277311,20.3596639 10.7361345,20.2084034 C11.1327731,19.9193277 11.512605,19.6134454 11.8823529,19.2941176 L11.9630252,19.2168067 C12.1310924,19.0655462 12.2890756,18.9109244 12.4436975,18.7462185 C12.5815126,18.594958 12.7058824,18.4470588 12.8235294,18.2957983 C12.8504202,18.2621849 12.8705882,18.2319328 12.8941176,18.1983193 C13.0016807,18.0537815 13.102521,17.8991597 13.1865546,17.7378151 C13.297479,17.5260504 13.3747899,17.3142857 13.4117647,17.102521 L13.4117647,17.102521 Z M6.83697479,14.0907563 L6.83697479,8.01680672 C5.89243697,8.17142857 5.25042017,8.58823529 4.58151261,9.03193277 C3.76806723,9.5697479 2.8605042,10.1714286 1.47226891,10.1714286 L1.45882353,10.1714286 C1.46554622,11.0722689 1.48907563,12.6117647 1.55966387,14.0907563 L6.83697479,14.0907563 L6.83697479,14.0907563 Z M6.83697479,21.6840336 L6.83697479,15.5394958 L1.64369748,15.5394958 C1.69411765,16.1378151 1.7512605,16.6789916 1.82521008,17.102521 C2.0907563,18.6252101 4.7092437,20.5142857 6.83697479,21.6840336 L6.83697479,21.6840336 Z M15.8621849,10.6823529 C15.6436975,10.6823529 15.4352941,10.6722689 15.2235294,10.6655462 C15.2201681,10.9781513 15.2168067,11.3277311 15.210084,11.707563 C15.4252101,11.7142857 15.6403361,11.7243697 15.8621849,11.7243697 C17.9731092,11.7243697 19.9663866,11.4722689 21.4823529,11.0151261 C22.3394958,10.7630252 23.0722689,10.410084 23.6235294,9.98319328 L23.6235294,14.6151261 C23.3647059,15.1058824 22.5915966,15.7512605 21.1798319,16.1815126 C19.7579832,16.6084034 17.8689076,16.8470588 15.8621849,16.8470588 C15.5428571,16.8470588 15.2302521,16.8336134 14.9210084,16.8201681 C14.897479,17.0084034 14.8705882,17.189916 14.8436975,17.3512605 C14.8134454,17.5226891 14.7630252,17.687395 14.7058824,17.8554622 C15.0857143,17.8756303 15.4722689,17.8890756 15.8655462,17.8890756 C17.9764706,17.8890756 19.9697479,17.6403361 21.4857143,17.1798319 C22.3428571,16.9310924 23.0756303,16.5647059 23.6268908,16.1378151 L23.6268908,20.2588235 C23.6268908,21.0756303 22.8033613,21.7411765 21.1731092,22.2319328 C19.7411765,22.6588235 17.8521008,22.9008403 15.8554622,22.9008403 C13.8588235,22.9008403 11.9697479,22.6621849 10.5277311,22.2319328 L10.4033613,22.1915966 C9.60672269,22.692437 8.77983193,23.1495798 7.92941176,23.5563025 C7.73445378,23.6504202 7.50588235,23.6504202 7.31092437,23.5563025 C6.65546218,23.2470588 0.941176471,20.4705882 0.396638655,17.3546218 C-0.0134453782,15.005042 -5.09174084e-05,9.60672269 -5.09174084e-05,9.37815126 C0.00336134454,8.97815126 0.329411765,8.65546218 0.732773109,8.65882353 C0.786554622,8.65882353 0.843697479,8.66554622 0.897478992,8.6789916 C2.18823529,8.87731092 2.8907563,8.41344538 3.77815126,7.82521008 C4.71260504,7.20672269 5.77478992,6.50420168 7.61344538,6.50420168 L7.62016807,6.50420168 C7.77815126,6.50420168 7.92268908,6.51764706 8.06722689,6.52436975 L8.06722689,3.8487395 C8.58823529,4.26554622 9.31092437,4.62184874 10.2420168,4.8907563 C11.7680672,5.34789916 13.7613445,5.6 15.8621849,5.6 C17.9630252,5.6 19.9563025,5.34789916 21.4823529,4.8907563 C22.3932773,4.61848739 23.102521,4.28571429 23.6235294,3.86554622 L23.6235294,8.45378151 C23.3647059,8.94453782 22.5915966,9.59327731 21.1798319,10.0201681 C19.7579832,10.4537815 17.8655462,10.6789916 15.8621849,10.6823529 Z" id="Data-stripes_3Masa"></path>
        </g>
    </g>
</svg>

<svg width="24" height="24" viewBox="0 0 24 24" xmlns="http://www.w3.org/2000/svg"><path d="M10.541 3.892c-1.358-.406-2.181-.96-2.4-1.596 0-.01 0-.01-.01-.02.219-.636 1.042-1.2 2.393-1.607C11.953.239 13.845 0 15.85 0c2.003 0 3.899.239 5.317.669 1.422.427 2.226.992 2.404 1.66 0 0-.01.01-.01.02-.242.616-1.056 1.147-2.384 1.543-1.431.427-3.314.67-5.317.67-2.004-.004-3.886-.243-5.318-.67zm3.217 7.752c.007-.387.013-.747.017-1.06l.003-.426c-1.422 0-2.32-.592-3.123-1.126C9.96 8.572 9.291 8.138 8.29 8v6.087h5.392c.033-.813.06-1.626.077-2.443zm-.346 5.459c.02-.115.037-.256.054-.387.023-.168.043-.346.063-.534.02-.206.044-.417.06-.643h-5.3v6.202a25.57 25.57 0 001.748-1.049l.064-.043a16.438 16.438 0 001.781-1.355l.081-.077c.168-.151.326-.306.48-.47.139-.152.263-.3.38-.451.027-.034.048-.064.071-.098.108-.144.209-.299.293-.46.11-.212.188-.424.225-.635zM6.837 14.09V8.017c-.945.154-1.587.571-2.255 1.015-.814.538-1.721 1.14-3.11 1.14H1.46c.007.9.03 2.44.1 3.919h5.278zm0 7.593v-6.145H1.644c.05.599.107 1.14.181 1.564.266 1.522 2.884 3.411 5.012 4.581zm9.025-11.002c-.218 0-.427-.01-.638-.016-.004.312-.007.662-.014 1.042.215.006.43.016.652.016 2.111 0 4.104-.252 5.62-.709.857-.252 1.59-.605 2.142-1.032v4.632c-.26.49-1.032 1.136-2.444 1.567-1.422.426-3.311.665-5.318.665-.32 0-.632-.013-.941-.027-.024.188-.05.37-.077.531a3.4 3.4 0 01-.138.504c.38.02.766.034 1.16.034 2.11 0 4.104-.249 5.62-.71.857-.248 1.59-.614 2.14-1.041v4.12c0 .818-.823 1.483-2.453 1.974-1.432.427-3.32.669-5.318.669-1.996 0-3.885-.239-5.327-.67l-.125-.04c-.796.501-1.623.959-2.474 1.365a.713.713 0 01-.618 0c-.656-.309-6.37-3.085-6.914-6.201C-.013 15.005 0 9.607 0 9.378a.725.725 0 01.897-.699c1.291.198 1.994-.266 2.881-.854.935-.618 1.997-1.32 3.835-1.32h.007c.158 0 .303.013.447.02V3.848c.521.417 1.244.773 2.175 1.042 1.526.457 3.52.709 5.62.709 2.101 0 4.094-.252 5.62-.71.911-.272 1.62-.604 2.142-1.024v4.588c-.26.49-1.032 1.14-2.444 1.566-1.422.434-3.314.659-5.318.662z" fill="#5CB615" fill-rule="nonzero"/></svg>
